X:1
T:Jeremy Soule
T:Score
T:Bob Schuler
T:Wings of Kynareth
T:Elder Scrolls IV: Oblivion
T:Violins
%%score [ 1 ( 2 3 ) ]
L:1/8
M:4/4
K:Dmin
V:1 treble nm="Violin" snm="Vln."
V:2 treble nm="Violin" snm="Vln."
V:3 treble 
V:1
"^Violin"{F} E x7 |"^legato" DFAF EFzE | DFAE CE z{/F} E | DFAG cAFG | EAcA F A3- | AccA GFAF | %6
 A2 AF G2{F} EC | FAFD F z{F} EC | .D z{F} EC .D z{F} EC | D8- |!p! D8 |!<(! D8- | %12
"^12""^12""^12""^12""^12""^12""^12" D8!<)! |!mf! E8 | F8 | G,8 | D8 | C8 | F8 | z4 z2 z{F} E | %20
"^20""^20""^20""^20""^20""^20""^20" (DFAF EF)z(E | DFAE CE) z{/F} E | (DFAG) (cAFG) | (EAcA F A3- | %24
 A)(ccA GFAF | A2) (AF G2)({F} EC | FAFD F) z({F} EC | .D) z({F} EC .D) z({F} EC | %28
"^28""^28""^28""^28""^28""^28""^28" D8-) | D8- | D8 | D8- |"^32""^32""^32""^32""^32""^32""^32" D8 | %33
 E8 | F8 | G8 | d8 | c8 | f8 | g6 z{f} e |"^40""^40""^40""^40""^40""^40""^40" (dfaf ef)z(e | %41
 dfae ce) z{/f} e | (dfag) (c'afg) | (eac'a f a3- | a)(c'c'a gfaf | a2) (af g2)({f} ec | %46
 fafd f) z({f} ec |[M:5/4] .d) z({f} ec .d) z{f} (ec Ac) | %48
[M:4/4]"^48""^48""^48""^48""^48""^48"!ff!"^48" (da a3) (d ad | gc c4) (cg | fA c4) (Ag | %51
 fA c4) (Ac | da a3) (d ad | gc c'4) (cg | fA c3) (A gA | fA c6) |!>(! c8!>)! | %57
"^57""^57""^57""^57""^57""^57"!mp!"^57" G8- | G6 (EF | G8-) | G6 (FG | A8-) | A8 | d8 | d6 fe | %65
 d8- | d8 |!<(! e8!<)! |!mf! f8 | e4 f4 |"^70""^70""^70""^70""^70""^70""^70"!>(! f8 | e8 | d8 | %73
 c8-!>)! | c8 | d'8- | d'8- | d'8- |!>(! d'8- | d'8-!>)! | d'8 |] %81
V:2
!f! z8 |"^legato" z8 | z8 | z8 | z8 | z8 | z8 | z8 | z8 | z8 |!p!!>(! z8!>)! |!<(! D8- | D8!<)! | %13
!mf! E8 | F8 | G,8 | D8 | C8 | F8 | z8 | a8- | a8- | a8- | a8- | a8- | a8- | a8- | a8- | a8- | %29
 a8- | a8 | a8- | a8 | C8 | A8 | G8 | F8 | E8 | A8 | G8 | (DFAF EF)z(E | DFAE CE) z{/F} E | %42
 (DFAG) (cAFG) | (EAcA F A3- | A)(ccA GFAF | A2) (AF G2)({F} EC | FAFD F) z({F} EC | %47
[M:5/4] .D) z({F} EC .D) z{F} (EC A,C) |[M:4/4]!ff! (DA A3) (D AD | GC C4) (CG | FA, C4) (A,G | %51
 FA, C4) (A,C | DA A3) (D AD | GC c4) (CG | FA, C3) (A, GA, | FA, C6) |!>(! G2 A6!>)! |!mp! D8- | %58
 D6 z2 | D8 | E6 DE | F8- | F8 | D8 | D6 FE | D8- | D8 |!<(! C8!<)! |!mf! F8 | C8 |!>(! D8 | C8 | %72
 D8 | C8-!>)! | C8 | z8 | z8 | z8 | z8 | z8 | z8 |] %81
V:3
{F} E x7 | DFAF EFzE | DFAE CE z{/F} E | DFAG cAFG | EAcA F A3- | AccA GFAF | A2 AF G2{F} EC | %7
 FAFD F z{F} EC | .D z{F} EC .D z{F} EC | D8- | D8 | x8 | x8 | x8 | x8 | x8 | x8 | x8 | x8 | x8 | %20
 x8 | x8 | x8 | x8 | x8 | x8 | x8 | x8 | x8 | x8 | x8 | x8 | x8 | x8 | x8 | x8 | x8 | x8 | x8 | %39
 x8 | x8 | x8 | x8 | x8 | x8 | x8 | x8 |[M:5/4] x10 |[M:4/4] x8 | x8 | x8 | x8 | x8 | x8 | x8 | %55
 x8 | x8 | x8 | x8 | x8 | x8 | x8 | x8 | x8 | x8 | x8 | x8 | x8 | x8 | x8 | x8 | x8 | x8 | x8 | %74
 x8 | x8 | x8 | x8 | x8 | x8 | x8 |] %81

